X:9354
T:Launching the Boat
M:4/4
L:1/8
R:reel
D:Sona: Launching the Boat
Z:Devin McCabe
K:D
d2fd AGFA|B~E3 BAFA|d2fd AGFD|~E3F GABc|
!d2fd AGFA|B~E3 BAFG|A2FA DAFD|1EDCE FDDA:|2EDCE FDde|
!:f~d3 fdgd|fAde fagf|eggf ~g3f|efga bgag|
!f~d3 edBc|defd AGFG|A2FA DAFD|1EDCE FDde:|2EDCE FDDA||
